X: 632
T: Hamilton County Breakdown
B: jims roots
M:4/4
L:1/16
R: reel
Q: 1/4=100
K:G
V:1 
B c2^c2 |: "G"d3g2edc B4 G4 | "F"=F3G FDE2 "D"D8 | D2DE FGAB cBAG FDEF |
[1 "G"GFGE DB,A,B, G,3B c2^c2 :| [2 "G"B2E2 DB,A,B, G,8 ||
"C"ccgc cacc gcca ccgc | "G"BBgB BaBB gBBa BBgf |
"D"fafe dfed cBAG FDEF | "G"GFGD EGDC B,G,A,B, G,2B2 ||
"C"[Ec][Ec][Bg][Ec] [Ec][ca][Ec][Ec] [cg][Ec][Ec][ca] [Ec][Ec][cg][Ec] | "G"[DB][DB][gB][DB] [DB][aB][DB][DB] _b[DB][DB][aB] [DB][DB][gB][Dd] |
"D"fafe dfed cBAG FDEF | "G"GBAG EFGE DB,A,B, G,2[B2g] ||
% abcbook-tune_id 6298c25da3b1ce0e61fda03b


% abcbook-boost 0
% abcbook-tablature 
% abcbook-transpose 
% abcbook-lastupdated 1654178398592
% abcbook-soundfonts 
% abcbook-repeats 1


